dist/svgs/crypto-icons/icons/tkn.svg

<?xml version="1.0" encoding="UTF-8" standalone="yes"?>
<svg xmlns="http://www.w3.org/2000/svg" xmlns:xlink="http://www.w3.org/1999/xlink" width="410.66666666666663px" height="510.66666666666663px" viewBox="0 0 308 383" version="1.1">
  <g id="surface1">
    <path style=" stroke:none;fill-rule:evenodd;fill:rgb(0%,0%,0%);fill-opacity:1;" d="M 201.875 161.976562 L 308 161.976562 L 308 93.355469 L 201.875 93.355469 L 201.875 0 L 116.894531 33.113281 L 116.894531 268.898438 C 116.894531 281.929688 119.023438 294.429688 123.28125 306.398438 C 127.535156 318.367188 133.453125 329.207031 141.035156 338.914062 C 148.613281 348.621094 157.589844 356.933594 167.964844 363.851562 C 178.335938 370.765625 189.640625 375.820312 201.875 379.011719 C 206.664062 380.339844 211.449219 381.335938 216.238281 382.003906 C 221.027344 382.667969 226.078125 383 231.398438 383 C 239.910156 383 251.082031 381.605469 264.910156 378.8125 C 278.742188 376.019531 291.773438 371.429688 304.011719 365.046875 L 277.679688 300.015625 C 273.6875 302.941406 269.300781 305.136719 264.511719 306.597656 C 259.726562 308.0625 254.539062 308.792969 248.953125 308.792969 C 236.984375 308.792969 226.542969 305.203125 217.632812 298.023438 C 208.726562 290.839844 203.472656 281.929688 201.875 271.292969 Z M 76.601562 130.859375 C 76.601562 142.5625 72.878906 152.535156 65.429688 160.78125 C 57.984375 169.027344 48.941406 173.148438 38.300781 173.148438 C 27.925781 173.148438 18.949219 169.027344 11.371094 160.78125 C 3.789062 152.535156 0 142.5625 0 130.859375 C 0 119.15625 3.789062 109.183594 11.371094 100.9375 C 18.949219 92.691406 27.925781 88.570312 38.300781 88.570312 C 48.941406 88.570312 57.984375 92.691406 65.429688 100.9375 C 72.878906 109.183594 76.601562 119.15625 76.601562 130.859375 Z M 76.601562 130.859375 "/>
  </g>
</svg>

<svg xmlns="http://www.w3.org/2000/svg" viewBox="0 0 308 383"><path fill-rule="evenodd" d="M201.875 161.977H308V93.355H201.875V0l-84.98 33.113v235.785c0 13.032 2.128 25.532 6.386 37.5 4.254 11.97 10.172 22.809 17.754 32.516 7.578 9.707 16.555 18.02 26.93 24.938 10.37 6.914 21.676 11.968 33.91 15.16a111.14 111.14 0 0014.363 2.992c4.79.664 9.84.996 15.16.996 8.512 0 19.684-1.395 33.512-4.188 13.832-2.792 26.863-7.382 39.102-13.765l-26.332-65.031a43.659 43.659 0 01-13.168 6.582c-4.785 1.464-9.973 2.195-15.559 2.195-11.969 0-22.41-3.59-31.32-10.77-8.906-7.183-14.16-16.093-15.758-26.73zM76.602 130.859c0 11.703-3.723 21.676-11.172 29.922-7.446 8.246-16.489 12.367-27.13 12.367-10.374 0-19.35-4.12-26.929-12.367C3.79 152.535 0 142.562 0 130.86s3.79-21.675 11.371-29.922c7.578-8.246 16.555-12.367 26.93-12.367 10.64 0 19.683 4.121 27.129 12.368 7.449 8.246 11.172 18.218 11.172 29.921zm0 0"/></svg>
